X:1
T:Viator, LM
T:Anonymous, before 1913
T:Viator, LM
T:Public Domain
C:Anonymous, before 1913
Z:Public Domain
%%score ( 1 2 ) 3
L:1/8
M:3/4
K:G
V:1 treble 
V:2 treble 
V:3 bass 
V:1
 [GB]2 [Ac]2 [GB]2 | [EB]4 [EA]2 | [FB]4 [FA]2 | G6 | [DG]2 [DG]2 [CE]2 | [B,D]4 [DG]2 | %6
 [^CB]4 [CA]2 | [DA]6 | [FA]2 G2 [FA]2 | [GB]4 [Gd]2 | [Gc]4 [Fc]2 | [GB]6 | [^GB]2 [Ac]2 [EB]2 | %13
 [EA]4 E2 | (D2 G2) [DF]2 | [DG]6 |] %16
V:2
 x6 | x6 | x6 | G6 | x6 | x6 | x6 | x6 | x2 G2 x2 | x6 | x6 | x6 | x6 | x4 E2 | D4 x2 | x6 |] %16
V:3
 [E,D]2 [F,D]2 [E,D]2 | [C,C]4 [C,C]2 | [D,C]4 [D,C]2 | [E,B,]6 | [B,,G,]2 [B,,G,]2 [C,G,]2 | %5
 [G,,G,]4 [B,,G,]2 | [A,,G,]4 [A,,G,]2 | [D,F,]6 | [CD]2 [B,D]2 [A,D]2 | [G,D]4 [B,D]2 | %10
 [A,E]4 [D,D]2 | [G,D]6 | [E,E]2 [E,E]2 [^G,D]2 | [A,C]4 [A,,A,]2 | [D,B,]4 [D,C]2 | [G,,G,B,]6 |] %16

